assets/img/icons/duotone-icons/Weather/Snow.svg

<?xml version="1.0" encoding="UTF-8"?>
<svg width="24px" height="24px" viewBox="0 0 24 24" version="1.1" xmlns="http://www.w3.org/2000/svg" xmlns:xlink="http://www.w3.org/1999/xlink">
    <!-- Generator: Sketch 52.2 (67145) - http://www.bohemiancoding.com/sketch -->
    <title>Stockholm-icons / Weather / Snow</title>
    <desc>Created with Sketch.</desc>
    <g id="Stockholm-icons-/-Weather-/-Snow" stroke="none" stroke-width="1" fill="none" fill-rule="evenodd">
        <rect id="bound" x="0" y="0" width="24" height="24"></rect>
        <path d="M11,10.4165357 L11,4 C11,3.44771525 11.4477153,3 12,3 C12.5522847,3 13,3.44771525 13,4 L13,10.317478 L18.38531,7.20826783 C18.8636026,6.93212546 19.475193,7.09600061 19.7513354,7.57429323 C20.0274778,8.05258586 19.8636026,8.66417626 19.38531,8.94031864 L13.9142136,12.0990576 L19.2995236,15.2082678 C19.7778162,15.4844102 19.9416914,16.0960006 19.665549,16.5742932 C19.3894066,17.0525859 18.7778162,17.216461 18.2995236,16.9403186 L13,13.8806373 L13,20 C13,20.5522847 12.5522847,21 12,21 C11.4477153,21 11,20.5522847 11,20 L11,13.7815796 L5.52890355,16.9403186 C5.05061093,17.216461 4.43902052,17.0525859 4.16287815,16.5742932 C3.88673577,16.0960006 4.05061093,15.4844102 4.52890355,15.2082678 L9.91421356,12.0990576 L4.44311711,8.94031864 C3.96482449,8.66417626 3.80094933,8.05258586 4.07709171,7.57429323 C4.35323408,7.09600061 4.96482449,6.93212546 5.44311711,7.20826783 L11,10.4165357 Z" id="Combined-Shape" fill="#335EEA" opacity="0.3"></path>
        <path d="M7.85831393,9.7796456 C7.8746047,9.81921653 7.88854151,9.86028217 7.89991279,9.90272036 C8.0428546,10.4361865 7.72627211,10.9845234 7.19280601,11.1274652 L5.26095436,11.6451033 C4.72748826,11.7880451 4.1791513,11.4714626 4.03620949,10.9379965 C3.89326768,10.4045304 4.20985016,9.85619348 4.74331627,9.71325167 L6.67516792,9.19561358 C6.71760611,9.1842423 6.7601384,9.17577912 6.80255323,9.17010187 C6.78626245,9.13053093 6.77232564,9.08946529 6.76095436,9.04702711 L6.24331627,7.11517546 C6.10037446,6.58170935 6.41695695,6.0333724 6.95042305,5.89043059 C7.48388915,5.74748877 8.03222611,6.06407126 8.17516792,6.59753737 L8.69280601,8.52938902 C8.83574782,9.06285512 8.51916533,9.61119208 7.98569923,9.75413389 C7.94326105,9.76550517 7.90072875,9.77396835 7.85831393,9.7796456 Z M17.0258739,15.0725388 C17.0421647,15.1121098 17.0561015,15.1531754 17.0674728,15.1956136 L17.5851109,17.1274652 C17.7280527,17.6609313 17.4114702,18.2092683 16.8780041,18.3522101 C16.344538,18.4951519 15.796201,18.1785694 15.6532592,17.6451033 L15.1356211,15.7132517 C14.9926793,15.1797856 15.3092618,14.6314486 15.8427279,14.4885068 C15.8851661,14.4771355 15.9276984,14.4686723 15.9701132,14.4629951 C15.9538224,14.4234242 15.9398856,14.3823585 15.9285143,14.3399203 C15.7855725,13.8064542 16.102155,13.2581173 16.6356211,13.1151755 L18.5674728,12.5975374 C19.1009389,12.4545956 19.6492758,12.771178 19.7922176,13.3046441 C19.9351594,13.8381103 19.618577,14.3864472 19.0851109,14.529389 L17.1532592,15.0470271 C17.110821,15.0583984 17.0682887,15.0668616 17.0258739,15.0725388 Z M15.9701132,9.7796456 C15.9276984,9.77396835 15.8851661,9.76550517 15.8427279,9.75413389 C15.3092618,9.61119208 14.9926793,9.06285512 15.1356211,8.52938902 L15.6532592,6.59753737 C15.796201,6.06407126 16.344538,5.74748877 16.8780041,5.89043059 C17.4114702,6.0333724 17.7280527,6.58170935 17.5851109,7.11517546 L17.0674728,9.04702711 C17.0561015,9.08946529 17.0421647,9.13053093 17.0258739,9.17010187 C17.0682887,9.17577912 17.110821,9.1842423 17.1532592,9.19561358 L19.0851109,9.71325167 C19.618577,9.85619348 19.9351594,10.4045304 19.7922176,10.9379965 C19.6492758,11.4714626 19.1009389,11.7880451 18.5674728,11.6451033 L16.6356211,11.1274652 C16.102155,10.9845234 15.7855725,10.4361865 15.9285143,9.90272036 C15.9398856,9.86028217 15.9538224,9.81921653 15.9701132,9.7796456 Z M6.80255323,15.0725388 C6.7601384,15.0668616 6.71760611,15.0583984 6.67516792,15.0470271 L4.74331627,14.529389 C4.20985016,14.3864472 3.89326768,13.8381103 4.03620949,13.3046441 C4.1791513,12.771178 4.72748826,12.4545956 5.26095436,12.5975374 L7.19280601,13.1151755 C7.72627211,13.2581173 8.0428546,13.8064542 7.89991279,14.3399203 C7.88854151,14.3823585 7.8746047,14.4234242 7.85831393,14.4629951 C7.90072875,14.4686723 7.94326105,14.4771355 7.98569923,14.4885068 C8.51916533,14.6314486 8.83574782,15.1797856 8.69280601,15.7132517 L8.17516792,17.6451033 C8.03222611,18.1785694 7.48388915,18.4951519 6.95042305,18.3522101 C6.41695695,18.2092683 6.10037446,17.6609313 6.24331627,17.1274652 L6.76095436,15.1956136 C6.77232564,15.1531754 6.78626245,15.1121098 6.80255323,15.0725388 Z M11.9142136,7.43797085 C11.8880895,7.47186454 11.859494,7.504467 11.8284271,7.53553391 C11.4379028,7.9260582 10.8047379,7.9260582 10.4142136,7.53553391 L9,6.12132034 C8.60947571,5.73079605 8.60947571,5.09763107 9,4.70710678 C9.39052429,4.31658249 10.0236893,4.31658249 10.4142136,4.70710678 L11.8284271,6.12132034 C11.859494,6.15238725 11.8880895,6.18498971 11.9142136,6.2188834 C11.9403376,6.18498971 11.9689331,6.15238725 12,6.12132034 L13.4142136,4.70710678 C13.8047379,4.31658249 14.4379028,4.31658249 14.8284271,4.70710678 C15.2189514,5.09763107 15.2189514,5.73079605 14.8284271,6.12132034 L13.4142136,7.53553391 C13.0236893,7.9260582 12.3905243,7.9260582 12,7.53553391 C11.9689331,7.504467 11.9403376,7.47186454 11.9142136,7.43797085 Z M11.9142136,18.0237573 C11.8880895,18.057651 11.859494,18.0902534 11.8284271,18.1213203 L10.4142136,19.5355339 C10.0236893,19.9260582 9.39052429,19.9260582 9,19.5355339 C8.60947571,19.1450096 8.60947571,18.5118446 9,18.1213203 L10.4142136,16.7071068 C10.8047379,16.3165825 11.4379028,16.3165825 11.8284271,16.7071068 C11.859494,16.7381737 11.8880895,16.7707761 11.9142136,16.8046698 C11.9403376,16.7707761 11.9689331,16.7381737 12,16.7071068 C12.3905243,16.3165825 13.0236893,16.3165825 13.4142136,16.7071068 L14.8284271,18.1213203 C15.2189514,18.5118446 15.2189514,19.1450096 14.8284271,19.5355339 C14.4379028,19.9260582 13.8047379,19.9260582 13.4142136,19.5355339 L12,18.1213203 C11.9689331,18.0902534 11.9403376,18.057651 11.9142136,18.0237573 Z" id="Combined-Shape" fill="#335EEA" opacity="0.3"></path>
    </g>
</svg>

<svg width="24" height="24" viewBox="0 0 24 24" xmlns="http://www.w3.org/2000/svg"><g fill="none" fill-rule="evenodd"><path d="M0 0h24v24H0z"/><path d="M11 10.417V4a1 1 0 012 0v6.317l5.385-3.109a1 1 0 011 1.732l-5.47 3.16 5.385 3.108a1 1 0 01-1 1.732L13 13.88V20a1 1 0 01-2 0v-6.218L5.529 16.94a1 1 0 11-1-1.732L9.914 12.1 4.444 8.94a1 1 0 011-1.732L11 10.417z" fill="#335EEA" opacity=".3"/><path d="M7.858 9.78a1 1 0 01-.666 1.348l-1.931.517a1 1 0 01-.518-1.932l1.932-.517a1.01 1.01 0 01.128-.026 1.01 1.01 0 01-.042-.123l-.518-1.932a1 1 0 111.932-.517l.518 1.931a1 1 0 01-.835 1.25zm9.168 5.293c.016.04.03.08.041.123l.518 1.931a1 1 0 01-1.932.518l-.517-1.932a1 1 0 01.834-1.25 1 1 0 01.666-1.348l1.931-.517a1 1 0 11.518 1.931l-1.932.518a1.01 1.01 0 01-.127.026zM15.97 9.78a1 1 0 01-.834-1.25l.517-1.932a1 1 0 011.932.517l-.518 1.932a1.01 1.01 0 01-.041.123c.042.006.085.014.127.026l1.932.517a1 1 0 01-.518 1.932l-1.931-.518a1 1 0 01-.666-1.347zm-9.167 5.293a1.01 1.01 0 01-.128-.026l-1.932-.518a1 1 0 11.518-1.931l1.932.517a1 1 0 01.665 1.348 1 1 0 01.834 1.25l-.517 1.932a1 1 0 11-1.932-.518l.518-1.931a1.01 1.01 0 01.042-.123zm5.111-7.635a1 1 0 01-1.5.098L9 6.12a1 1 0 111.414-1.414l1.414 1.414c.031.031.06.064.086.098A1.01 1.01 0 0112 6.12l1.414-1.414a1 1 0 111.414 1.414l-1.414 1.415a1 1 0 01-1.5-.098zm0 10.586a1.01 1.01 0 01-.086.097l-1.414 1.415A1 1 0 019 18.12l1.414-1.414a1 1 0 011.5.098 1 1 0 011.5-.098l1.414 1.414a1 1 0 01-1.414 1.415L12 18.12a1.01 1.01 0 01-.086-.097z" fill="#335EEA" opacity=".3"/></g></svg>
